symbolia-neutral/scalable/status/gtk-dialog-warning.svg

<?xml version="1.0" encoding="UTF-8" standalone="no"?>
<svg
   height="24"
   viewBox="0 0 24 24"
   width="24"
   version="1.1"
   id="svg4"
   sodipodi:docname="gtk-dialog-warning.svg"
   inkscape:version="1.1 (c68e22c387, 2021-05-23)"
   xmlns:inkscape="http://www.inkscape.org/namespaces/inkscape"
   xmlns:sodipodi="http://sodipodi.sourceforge.net/DTD/sodipodi-0.dtd"
   xmlns="http://www.w3.org/2000/svg"
   xmlns:svg="http://www.w3.org/2000/svg">
  <defs
     id="defs8" />
  <sodipodi:namedview
     id="namedview6"
     pagecolor="#ffffff"
     bordercolor="#666666"
     borderopacity="1.0"
     inkscape:pageshadow="2"
     inkscape:pageopacity="0.0"
     inkscape:pagecheckerboard="0"
     showgrid="false"
     inkscape:zoom="33.541667"
     inkscape:cx="16.576398"
     inkscape:cy="15.29441"
     inkscape:window-width="1920"
     inkscape:window-height="1016"
     inkscape:window-x="0"
     inkscape:window-y="0"
     inkscape:window-maximized="1"
     inkscape:current-layer="svg4" />
  <path fill="#909090"
     id="path2"
     d="M 12 3.9921875 C 11.3275 3.9921875 10.654531 4.3252344 10.269531 4.9902344 L 2.7402344 18 C 1.9702344 19.33 2.9307031 21 4.4707031 21 L 19.529297 21 C 21.069297 21 22.029766 19.33 21.259766 18 L 13.730469 4.9902344 C 13.345469 4.3252344 12.6725 3.9921875 12 3.9921875 z M 12 10 C 12.55 10 13 10.45 13 11 L 13 13 C 13 13.55 12.55 14 12 14 C 11.45 14 11 13.55 11 13 L 11 11 C 11 10.45 11.45 10 12 10 z M 12 16 A 1 1 0 0 1 13 17 A 1 1 0 0 1 12 18 A 1 1 0 0 1 11 17 A 1 1 0 0 1 12 16 z " />
</svg>

<svg xmlns="http://www.w3.org/2000/svg" height="24" viewBox="0 0 24 24" width="24"><path fill="#909090" d="M4.47 21h15.06c1.54 0 2.5-1.67 1.73-3L13.73 4.99c-.77-1.33-2.69-1.33-3.46 0L2.74 18c-.77 1.33.19 3 1.73 3zM12 14c-.55 0-1-.45-1-1v-2c0-.55.45-1 1-1s1 .45 1 1v2c0 .55-.45 1-1 1zm1 4h-2v-2h2v2z"/></svg>
